X:405
T:Into the Void
M:C|
C:© Paul Gitlitz 2017
K:EDor
B,|:"Em"EB,EG "Bm"FD2B,| "Em"EGBd "A"cA2c|"G"dBcA "Bm"BdAF| "Em"GFED "C"=C3_B, |!
"Em"B,EGB "D"AF2d|"Em"edeg "Bm"fd2f|"Em"gefd "C"e=cdB|1"B7"AFGF "Em"E3B,:|2"D"AFGF "Em"EFGA|!
|:"G"BGdG "Am"=cBAd|"G"BGdG "C"ed=ce|"G"Bdgf "Em"edBG|"Am"AGFG "D"Aded|!
"G"BGBd "A"cA2f|"Em"gbag "Bm"fd2f|"Em"gefd "C"e=cdB|"B7"AFGF "Em"E4:|]
